X: 6
T: Doonagore
R: reel
M: 4/4
L: 1/8
K: Gmaj
DG G/F/G A2 fe | fdcd fdcA | GGFG Ad-de | fdcA GBAF |
DG G/F/G A2 fe | fdcd fdcA | GGFG Ad-de | fdcA BG G3 z ||
g2 ge fdfe | fdgd fdfd | Ggge fdfe | fdcA BG G2 |
gbge fdfe | fdgd fdfd | defg a3 g | fdcA GBAF |]


Tune 2816	Setting 16021

